app/assets/images/heroicons/mini/chevron-double-up.svg

<svg width="20" height="20" viewBox="0 0 20 20" fill="none" xmlns="http://www.w3.org/2000/svg">
<path fill-rule="evenodd" clip-rule="evenodd" d="M9.46967 4.71967C9.76256 4.42678 10.2374 4.42678 10.5303 4.71967L14.7803 8.96967C15.0732 9.26256 15.0732 9.73744 14.7803 10.0303C14.4874 10.3232 14.0126 10.3232 13.7197 10.0303L10 6.31066L6.28033 10.0303C5.98744 10.3232 5.51256 10.3232 5.21967 10.0303C4.92678 9.73744 4.92678 9.26256 5.21967 8.96967L9.46967 4.71967ZM5.21967 13.9697L9.46967 9.71967C9.76256 9.42678 10.2374 9.42678 10.5303 9.71967L14.7803 13.9697C15.0732 14.2626 15.0732 14.7374 14.7803 15.0303C14.4874 15.3232 14.0126 15.3232 13.7197 15.0303L10 11.3107L6.28033 15.0303C5.98744 15.3232 5.51256 15.3232 5.21967 15.0303C4.92678 14.7374 4.92678 14.2626 5.21967 13.9697Z" fill="#0F172A"/>
</svg>

<svg xmlns="http://www.w3.org/2000/svg" viewBox="0 0 20 20" fill="currentColor" aria-hidden="true" data-slot="icon">
  <path fill-rule="evenodd" d="M9.47 4.72a.75.75 0 0 1 1.06 0l4.25 4.25a.75.75 0 1 1-1.06 1.06L10 6.31l-3.72 3.72a.75.75 0 1 1-1.06-1.06l4.25-4.25Zm-4.25 9.25 4.25-4.25a.75.75 0 0 1 1.06 0l4.25 4.25a.75.75 0 1 1-1.06 1.06L10 11.31l-3.72 3.72a.75.75 0 0 1-1.06-1.06Z" clip-rule="evenodd"/>
</svg>
